X: 33
T: Snake Dance Song (a)
C: Anon.
%%abc-version 2.0
%%abcx-abcm2ps-target-version 5.9.1 (29 Sep 2008)
%%abc-creator hum2abc beta
%%abcx-conversion-date 2020/08/10 20:56:09
%%abc-copyright Electronic Copyright 2000 David Huron
%%abc-edited-by David Huron
%%abcx-initial-encoding-date August 28, 2000
%%humdrum-veritas 1656139511
%%humdrum-veritas-data 2655050242
%%linebreak <none>
%%barnumbers 0
L: 1/8
M: 2/4
Q: 1/4=66
K: G clef=bass
G, G,A,2[M:3/4] | 
B,> G, G, D,D,2[M:2/4] | 
B, B,/ A,/B,2[M:3/4] | 
A,> G, G, D, D, z[M:2/4] | 
G, G,A,2[M:3/4] | 
B,> G, G, D,D,2[M:2/4] | 
B, B,/ A,/B,2[M:3/4] | 
A,> G, G, D, D, z[M:2/4] | 
G, G,A,2[M:3/4] | 
B,> G, G, D, D, z/ G,/ ]|:  
[M:2/4]G,> G, G, z[M:3/4] [I:setbarnb 12]| 
G,2G,2z3/ G,/[M:2/4] | 
G,> G, G, z[M:3/4] | 
G,2G,2z3/ A,/[M:2/4] | 
A,> G, G, z[M:3/4] | 
G,2G,2z3/ G,/[M:2/4] | 
G,> G, G, z[M:3/4] | 
G,2G,2z3/ G,/ :|]  
G,2G,2 |]  


